app/assets/images/heroicons/micro/hand-thumb-down.svg

<svg width="16" height="16" viewBox="0 0 16 16" fill="none" xmlns="http://www.w3.org/2000/svg">
<path d="M10.3247 3H12.0002V8C11.3373 8 10.7814 8.4664 10.4434 9.03663C10.11 9.59909 9.64277 10.0728 9.08551 10.414C8.60779 10.7064 8.1789 11.1203 8.09711 11.6744L8.0965 11.6787C8.05902 11.9334 8.03221 12.1916 8.01654 12.4528C8.00569 12.6338 8.00019 12.8163 8.00019 13C8.00019 13.4489 8.03305 13.8901 8.0965 14.3213C8.12493 14.5146 8.04866 14.7147 7.87297 14.8C7.60923 14.9281 7.3131 15 7.00019 15C5.89562 15 5.00019 14.1044 5.00019 12.9999C5.00019 12.1881 5.08079 11.3952 5.23442 10.6287C5.29863 10.3083 5.05995 10 4.73323 10H3.00019C1.89562 10 0.989747 9.10242 1.09876 8.00324C1.11913 7.79779 1.14261 7.59325 1.16913 7.38965C1.3571 5.94337 1.70002 4.54665 2.18007 3.21559C2.44976 2.46779 3.17803 2 3.97298 2H6.67563C6.8906 2 7.10416 2.03466 7.30809 2.10263L9.69229 2.89737C9.89622 2.96534 10.1098 3 10.3247 3Z" fill="black"/>
<path d="M14 2C13.4477 2 13 2.44772 13 3V9C13 9.55228 13.4477 10 14 10C14.5523 10 15 9.55228 15 9V3C15 2.44772 14.5523 2 14 2Z" fill="black"/>
</svg>

<svg xmlns="http://www.w3.org/2000/svg" viewBox="0 0 16 16" fill="currentColor" aria-hidden="true" data-slot="icon">
  <path d="M10.325 3H12v5c-.663 0-1.219.466-1.557 1.037a4.02 4.02 0 0 1-1.357 1.377c-.478.292-.907.706-.989 1.26v.005a9.031 9.031 0 0 0 0 2.642c.028.194-.048.394-.224.479A2 2 0 0 1 5 13c0-.812.08-1.605.234-2.371a.521.521 0 0 0-.5-.629H3C1.896 10 .99 9.102 1.1 8.003A19.827 19.827 0 0 1 2.18 3.215C2.45 2.469 3.178 2 3.973 2h2.703a2 2 0 0 1 .632.103l2.384.794a2 2 0 0 0 .633.103ZM14 2a1 1 0 0 0-1 1v6a1 1 0 1 0 2 0V3a1 1 0 0 0-1-1Z"/>
</svg>
